!!!!SEGMENT:15Ishidan_c.krn
!!!OTL: 石段
!!!OPR:Eiga Banso Kyokusyu,jidai-geki,zenpen
!!!YOY:1929
!!!ONB:Dairantou,Ishidan
**kern
*clefG2
*k[]
*C:
*M2/4
=1
!LO:TX:a:B:t=Allegro
8bbL
8bbJ
8aaL
8aaJ
=2
8bbL
16bbL
16bbJJ
4bb
=3
8bbL
8bbJ
8aaL
8aaJ
=4
8bbL
16bbL
16bbJJ
4bb
=5
8.bbL
16cccJk
8eeeL
8eeeJ
=6
8eeeL
8cccJ
8bbL
8aaJ
=7
8bbL
8cccJ
8eeeL
8cccJ
=8
8cccL
8bbJ
4r
=9
8bbL
8bbJ
4bb
=10
8ff#XL
8ff#J
4ff#
=11
8bbL
8bbJ
4bb
=12
8ff#XL
8ff#J
4ff#
=13
8r
8bbL
8gg
8ggJ
=14
8ff#XL
8ee
8cc
8ccJ
=15
8bL
8a
8b
8ddJ
=16
8eeL
8eeJ
4r
=17
4ff
4ee
=18
4b-X
4a
=19
8fL
8a
8f
8eJ
=20
8dL
8eJ
4r
=21
4g
4f#X
=22
16eLL
16e
16e
16eJJ
4f#X
=23
8aL
8b
8cc
8eeJ
=24
8ff#XL
16ff#L
16ff#JJ
8bL
8ff#J
=25
16ff#XLL
16ff#J
8aJ
8aL
8fnJ
=26
8fL
8a
8b
8aJ
=27
8BL
8eJ
8eL
8eJ
=28
8eL
8eJ
4r
==
*-
!!!ENC: Yukiko Yoden
!!!END: 2023/06/11
